X: 54
T: Quant vous me ferez
N: Derived from Bus3050-Quant_vous_me_ferez.krn
C: Antoine Busnoys
%%abc-version 2.0
%%abcx-abcm2ps-target-version 5.9.1 (29 Sep 2008)
%%abc-creator hum2abc beta
%%abcx-conversion-date 2019/02/16 20:26:07
%%abc-edited-by Jesse Rodin
%%abc-edited-by Chris Gage 03-28-2015
%%abcx-initial-encoding-date 2015/10/29/
%%humdrum-veritas 3770272058
%%humdrum-veritas-data 1569653509
%%linebreak <none>
%%barnumbers 0
L: 1/4
M: 3/1
Q: 1/2=120
V: 1 clef=treble
V: 2 clef=treble-8
V: 3 clef=bass
K: F
[V:1] z12 | 
[V:2] z12 | 
[V:3] z12 | 
[V:1] z4z4D4 | 
[V:2] z4z4d4 | 
[V:3] z4z4D,4 | 
[V:1] F6E2F4 | 
[V:2] d6c2A4 | 
[V:3] D,6A,,2D,2F,2 | 
[V:1] G4A3GE3D | 
[V:2] =B4c6=B2 | 
[V:3] E,4A,,8 | 
[V:1] D4E2F2GFED | 
[V:2] d4c2A2=B4 | 
[V:3] B,,4A,,4E,4 | 
[V:1] C12 | 
[V:2] A6GFE4 | 
[V:3] A,,8z2C,2 | 
[V:1] z2D2E4F4 | 
[V:2] D4z4z2D2 | 
[V:3] D,2F,2G,4F,3E, | 
[V:1] G3FD4E2D2- | 
[V:2] E4F4G3F | 
[V:3] C,4z4G,,4- | 
[V:1] D2F2G2A4G2 | 
[V:2] D4E2D2F2G2 | 
[V:3] G,,2D,2C,2F,2D,2E,2 | 
[V:1] c2=B3AA4^G2 | 
[V:2] A2G2c4=B4 | 
[V:3] F,2G,2A,4E,4 | 
[V:1] A4G2E2F3G | 
[V:2] z2A2=B2c2d4 | 
[V:3] A,,4E,4D,4 | 
[V:1] E12 | 
[V:2] ^c8z4 | 
[V:3] A,,8z4 | 
[V:1] z4z4D4 | 
[V:2] d4c2c2f4 | 
[V:3] F,4E,2E,2D,3C, | 
[V:1] C2C2F4E4 | 
[V:2] e4d3cA4 | 
[V:3] A,,4z2B,,2C,4 | 
[V:1] D3CA,4B,2C2- | 
[V:2] z2=B2c4d2c2- | 
[V:3] G,,4A,,2C,2B,,2A,,2- | 
[V:1] C2D2C2F4E2 | 
[V:2] cA=B2c2A2G4 | 
[V:3] A,,2G,,2A,,3B,,C,4 | 
[V:1] A3GGFF4E2 | 
[V:2] F4B2F2G4 | 
[V:3] z2D,2B,,2D,2C,4 | 
[V:1] F8z2F2- | 
[V:2] F4z2B4A2 | 
[V:3] z2D,4B,,2G,,2D,2- | 
[V:1] F2E3DD4^C2 | 
[V:2] F2G3FD2E4 | 
[V:3] D,2C,4B,,2A,,4 | 
[V:1] D2F2G2A3BAG/F/ | 
[V:2] D4E2D4F2 | 
[V:3] z2D,2C,2F,4D,2 | 
[V:1] E2F3GFE/D/^C3=B, | 
[V:2] G2A2D4E4 | 
[V:3] C,2A,,2B,,4A,,4 | 
[V:1] D12 |]  
[V:2] D12 |]  
[V:3] A,12 |]  



